X: 6502
T: Cat Sat In The Road, The
R: slip jig
M: 9/8
K: Gmajor
|:E|D2d BAG GAG|E2G ABd ded|gde ged BAG|AAA BGD EGE|
D2d BAG GAG|E2G ABd ded|gag edB dBG|1 AGA ABA G2:|2 AGA ABA G3||
|:ede ege dBG|A3 aga abg|ede ege dBG|A3 BGD EGE|
D2d BAG GAG|E2G ABd ded|gag edB dBG|1 AGA ABA G3:|2 AGA ABA G2||

